X: 10171
M: 2/4
L: 1/16
K: D
|: (AB/c/) |\
(dc)(de) (dcBA) | B/A/B/c/ dB A3G |\
(FA) (BA)(GF) (ED) | F2E2 E2(3ABc |\
dcde dcBA | BABc d3B |\


